!!!COM:	Bach, Johann Sebastian
!!!CDT:	1685/02/21/-1750/07/28/
!!!OTL@@DE:	Ich hab mein Sach Gott heimgestellt
!!!SCT:	BWV 351
!!!PC#:	19
!!!AGN:	chorale
**kern	**kern	**kern	**kern
*ICvox	*ICvox	*ICvox	*ICvox
*Ibass	*Itenor	*Ialto	*Isoprn
*I"Bass	*I"Tenor	*I"Alto	*I"Soprano
*	*oclefC4	*oclefC3	*oclefC1
*clefF4	*clefGv2	*clefG2	*clefG2
*k[b-]	*k[b-]	*k[b-]	*k[b-]
*g:dor	*g:dor	*g:dor	*g:dor
*M4/4	*M4/4	*M4/4	*M4/4
*met(c)	*met(c)	*met(c)	*met(c)
*MM100	*MM100	*MM100	*MM100
4G	4B-	4d	4g
=1	=1	=1	=1
8GL	8B-L	4d	4g
8FJ	8AJ	.	.
4E-	4G	8dL	4g
.	.	8c#J	.
8DL	4A	4d	4f#
8CnXJ	.	.	.
8BB-L	4d	8gL	4b-
8GGJ	.	8fJ	.
=2	=2	=2	=2
4C	4c	8e-L	4a
.	.	8dJ	.
4C#	8B-L	4e	4g
.	8AJ	.	.
4D;	4A;	4d;	4f#;
8DL	4A	4d	4f#
[8E-J	.	.	.
=3	=3	=3	=3
8E-L]	4A	4c	4f#
[8DJ	.	.	.
8DL]	4A	4d	4f#
[8CnXJ	.	.	.
8CL]	4G	4d	4g
8BBJ	.	.	.
8CL	4G	4c	4e
8BB-J	.	.	.
=4	=4	=4	=4
4AA	8AL	8cL	4f#
.	8cJ	8e-J	.
4D	8cL	4d	4f#
.	16B-L	.	.
.	16AJJ	.	.
4GG;	4B-;	4d;	4g;
4F	4c	4f	4a
=5	=5	=5	=5
8FL	4c	4f	4a
8G	.	.	.
8F	4c	4g	4cc
8EnXJ	.	.	.
8FL	4c	4f	4a
[8E-J	.	.	.
8E-L]	4B-	4f	4f
8DJ	.	.	.
=6	=6	=6	=6
8E-L	4B-	8e-L	4g
8EJ	.	8dJ	.
8FL	8AL	8cL	4a
8F#J	8cJ	8e-XJ	.
4G;	4B-;	4d;	4b-;
4GG	4d	[4g	4b-
=7	=7	=7	=7
4D	4.d	8gL]	4a
.	.	8f#J	.
4E-	.	8gL	4g
.	8c	8GJ	.
4D;	4A;	4d;	4f#;
4D	4A	4d	4f#
=8	=8	=8	=8
8AAL	4A	8cL	4f#
8BB-J	.	8dJ	.
4C	4A	8e-L	4f#
.	.	8dJ	.
8BB-L	[4G	4d	4g
8BB	.	.	.
8C	16GLL]	4e	4e
.	16AJ	.	.
8C#J	8B-J	.	.
=9	=9	=9	=9
4D	8AL	4d	4f#
.	8GJ	.	.
4DD	16ALL	4d	4f#
.	16B-J	.	.
.	8cnXJ	.	.
4GG;	8cL	4d;	4g;
.	8B;J	.	.
==	==	==	==
*-	*-	*-	*-
!!!YOR1: 371 vierstimmige Choralges&auml;nge von Johann Sebastian Bach, 
!!!YOR2: 4th ed. by Alfred D&ouml;rffel (Leipzig: Breitkopf und H&auml;rtel, 
!!!YOR2: c.1875). 178 pp. Plate "V.A.10".  reprint: J.S. Bach, 371 Four-Part 
!!!YOR4: Chorales (New York: Associated Music Publishers, Inc., c.1940).
!!!SMS: B&H, 4th ed, Alfred D&ouml;rffel, c.1875, plate V.A.10
!!!EED:  Craig Stuart Sapp
!!!EEV:  2009/05/22
